X:1
T: The Hillside Cottage
C:
R:Reel
Q: 232
K:G
M:4/4
L:1/8
|:D2|G3B AG ED|GB dg e3f|gf ge dB Ac|BG AF GF ED|
G3B AG ED|GB dg e3f|gf ge dB ge|dB AB G2:|
|:d2|g2 dg ed gd|ea ab ag ef|g2 dg ed gd|eg fa g2 ga|
ba gb ag fa|ga ge d2 ef|gf ge dB ge|dB AB G2:|
